X: 20717
T: Johnny Cope
R: polka
M: 2/4
K: Eminor
B,2E2 EFGA|B2E2 E2FE|D2D2 DEFG|A2D2 F2ED|B,2E2 EFGA|B2E2 E2FE|D2d2 BAGF|E6 E2:|
G3A G2F2|GFGA B2AG|F2D2 A2D2|FGAB A2GF|GFGA B2e2|dBAB d2FE|D2d2 BAGF|E6 E2:|
E2e2 e2de|f2e2 e2Bc|dc^de fgfe|dBAB d2A2|B2e2 e2de|f2e2 egfe|d2A2 BAGF|E6 E2:|

